X:41
T:The Dragon
C:from the playing of John Barry
Q:1/4=210
I:abc2nwc
M:4/4
L:1/8
K:D
D2F2A2Bc|d2d2cB A2|A,2C2E2F2|G2G2FE D2|
D2F2A2Bc|d2d2cB A2|A,2C2E2EF|E2D2D4:|
|:f2A2f2A2|f3g fe d2|e2A2e2A2|e3f ed c2|
f2A2f2A2|f3g fe d2|e2A2B2c2|d4d4:|
